message-flash-outline.svg

<svg fill="currentColor" viewBox="0 0 24 24"><path d="M4 17.2V4h16v6h2V4c0-1.1-.9-2-2-2H4c-1.1 0-2 .9-2 2v18l4-4h9v-2H5.2zM22.5 16h-2.2l1.7-4h-5v6h2v5z"/></svg>

<svg  viewBox="0 0 24 24" fill="currentColor"><path  d="M4 17.2V4H20V10H22V4C22 2.9 21.1 2 20 2H4C2.9 2 2 2.9 2 4V22L6 18H15V16H5.2L4 17.2M22.5 16H20.3L22 12H17V18H19V23L22.5 16Z"/></svg>
